X:1
T:Woods of Bargenny, The
T:Woods of Bargenny, The
T:John Riddell of Ayr (1718-1795)
C:John Riddell of Ayr (1718-1795)
L:1/8
M:6/8
K:F
V:1 treble 
V:1
 (fgf) cAc | f2 c (AB)c | (fgf) cAc | Tg2 f (ef)g | (fgf) edc | def (cd/c/B/A/) | %6
 (GAG) B2 (c/d/) :: F2 c (A/B/c)A | f2 c (A/B/c)A | F2 c (A/B/c)A |{a} g2 f (efg) | F2 c (A/B/c)A | %12
 fcA fcA | def (cd/c/B/A/) | GAG B2 (c/d/) :| %15

